X:270
T: Wild Fire Chase
S: "The Roche Collection of Traditional Irish Music" [I/60/152]
N: Version of "Five Mile Chase"
L: 1/8
M: 4/4
R: reel
K: A
A2 (3cBA eAcA | GBEB GBEB | A2 (3cBA eAce | fagb afec |
A2 (3cBA eAcA | GBEB GBEB | A2 (3cBA eAce | fagb az ||
ag | aece aece | fgaf fece | aece aece | fagb a3a |
abc'a fgaf | efed cBce | fefg fece | fagb afec |]
